img/advertisement-mobile-fill-70.svg

<svg height="19" viewBox="0 0 20 19" width="20" xmlns="http://www.w3.org/2000/svg"><path d="m12.975 12.5047562c-.7475 0-1.375625-.6848246-1.375625-1.5292063 0-.8443816.628125-1.55179841 1.375625-1.55179841s1.35375.70741681 1.35375 1.55179841c0 .8443817-.60625 1.5292063-1.35375 1.5292063m.3175 2.968044c-.69625.7857833-1.77 1.1677319-3.2825 1.1677319-.003125 0-.006875-.000706-.010625-.000706-.003125 0-.006875.000706-.010625.000706-1.5125 0-2.585625-.3819486-3.28125-1.1677319-.21375-.2414536-.21375-.6318742 0-.8726218.213125-.2407477.55875-.2407477.7725 0 .48.5422116 1.300625.8062574 2.50875.8062574.00375 0 .0075.000706.010625.000706.00375 0 .0075-.000706.010625-.000706 1.208125 0 2.029375-.2640458 2.51-.8062574.21375-.2414537.559375-.2407477.7725 0 .213125.2414536.213125.6318742 0 .8726218m-7.62125-4.4972503c0-.8436756.626875-1.55179841 1.37375-1.55179841.7475 0 1.35375.70812281 1.35375 1.55179841 0 .8443817-.60625 1.5292063-1.35375 1.5292063-.746875 0-1.37375-.6848246-1.37375-1.5292063m10.99375-9.74145359c.50625 0 .918125.46525714.918125 1.03641499 0 .57186385-.411875 1.03712098-.918125 1.03712098s-.918125-.46525713-.918125-1.03712098c0-.57115785.411875-1.03641499.918125-1.03641499m3.335 8.06186832c0-1.49743609-1.078125-2.7152943-2.40375-2.7152943-.57375 0-1.100625.22874554-1.514375.60928211-1.465625-1.04065101-3.325625-1.66758324-5.319375-1.80031213l1.04-3.71429102 2.858125.76036712c.075 1.17549792.945 2.10601219 2.004375 2.10601219 1.108125 0 2.01-1.01876487 2.01-2.2712173 0-1.25174644-.901875-2.2705113-2.01-2.2705113-.775 0-1.44875.49843936-1.784375 1.22633026l-3.32125-.88321195c-.278125-.0741305-.559375.10660672-.645625.41442479l-1.29125 4.61021106c-2.148125.0593044-4.1675.68835464-5.740625 1.78972206-.408125-.36076843-.92125-.57680589-1.478125-.57680589-1.325625 0-2.40375 1.21785821-2.40375 2.7152943 0 .92557227.4125 1.74383177 1.040625 2.23379907-.02625.2153314-.04.4320749-.04.6516424 0 1.8716186.963125 3.6126263 2.711875 4.901791 1.67625 1.2362143 3.895 1.9168029 6.246875 1.9168029s4.570625-.6805886 6.246875-1.9168029c1.74875-1.2891647 2.711875-3.0301724 2.711875-4.901791 0-.1997994-.011875-.3981867-.03375-.595162.67-.4822013 1.115625-1.328701 1.115625-2.29027947" fill="#9b9b9b" fill-rule="evenodd"/></svg>

<?xml version="1.0" encoding="UTF-8"?>
<svg width="20px" height="19px" viewBox="0 0 20 19" version="1.1" xmlns="http://www.w3.org/2000/svg" xmlns:xlink="http://www.w3.org/1999/xlink">
    <!-- Generator: Sketch 50.2 (55047) - http://www.bohemiancoding.com/sketch -->
    <desc>Created with Sketch.</desc>
    <defs></defs>
    <g id="Page-1" stroke="none" stroke-width="1" fill="none" fill-rule="evenodd">
        <path d="M12.975,12.5047562 C12.2275,12.5047562 11.599375,11.8199316 11.599375,10.9755499 C11.599375,10.1311683 12.2275,9.42375149 12.975,9.42375149 C13.7225,9.42375149 14.32875,10.1311683 14.32875,10.9755499 C14.32875,11.8199316 13.7225,12.5047562 12.975,12.5047562 M13.2925,15.4728002 C12.59625,16.2585835 11.5225,16.6405321 10.01,16.6405321 C10.006875,16.6405321 10.003125,16.6398261 9.999375,16.6398261 C9.99625,16.6398261 9.9925,16.6405321 9.98875,16.6405321 C8.47625,16.6405321 7.403125,16.2585835 6.7075,15.4728002 C6.49375,15.2313466 6.49375,14.840926 6.7075,14.6001784 C6.920625,14.3594307 7.26625,14.3594307 7.48,14.6001784 C7.96,15.14239 8.780625,15.4064358 9.98875,15.4064358 C9.9925,15.4064358 9.99625,15.4071418 9.999375,15.4071418 C10.003125,15.4071418 10.006875,15.4064358 10.01,15.4064358 C11.218125,15.4064358 12.039375,15.14239 12.52,14.6001784 C12.73375,14.3587247 13.079375,14.3594307 13.2925,14.6001784 C13.505625,14.841632 13.505625,15.2320526 13.2925,15.4728002 M5.67125,10.9755499 C5.67125,10.1318743 6.298125,9.42375149 7.045,9.42375149 C7.7925,9.42375149 8.39875,10.1318743 8.39875,10.9755499 C8.39875,11.8199316 7.7925,12.5047562 7.045,12.5047562 C6.298125,12.5047562 5.67125,11.8199316 5.67125,10.9755499 M16.665,1.23409631 C17.17125,1.23409631 17.583125,1.69935345 17.583125,2.2705113 C17.583125,2.84237515 17.17125,3.30763228 16.665,3.30763228 C16.15875,3.30763228 15.746875,2.84237515 15.746875,2.2705113 C15.746875,1.69935345 16.15875,1.23409631 16.665,1.23409631 M20,9.29596463 C20,7.79852854 18.921875,6.58067033 17.59625,6.58067033 C17.0225,6.58067033 16.495625,6.80941587 16.081875,7.18995244 C14.61625,6.14930143 12.75625,5.5223692 10.7625,5.38964031 L11.8025,1.67534929 L14.660625,2.43571641 C14.735625,3.61121433 15.605625,4.5417286 16.665,4.5417286 C17.773125,4.5417286 18.675,3.52296373 18.675,2.2705113 C18.675,1.01876486 17.773125,0 16.665,0 C15.89,0 15.21625,0.498439358 14.880625,1.22633026 L11.559375,0.343118312 C11.28125,0.268987812 11,0.44972503 10.91375,0.757543103 L9.6225,5.36775416 C7.474375,5.42705856 5.455,6.0561088 3.881875,7.15747622 C3.47375,6.79670779 2.960625,6.58067033 2.40375,6.58067033 C1.078125,6.58067033 0,7.79852854 0,9.29596463 C0,10.2215369 0.4125,11.0397964 1.040625,11.5297637 C1.014375,11.7450951 1.000625,11.9618386 1.000625,12.1814061 C1.000625,14.0530247 1.96375,15.7940324 3.7125,17.0831971 C5.38875,18.3194114 7.6075,19 9.959375,19 C12.31125,19 14.53,18.3194114 16.20625,17.0831971 C17.955,15.7940324 18.918125,14.0530247 18.918125,12.1814061 C18.918125,11.9816067 18.90625,11.7832194 18.884375,11.5862441 C19.554375,11.1040428 20,10.2575431 20,9.29596463" id="Fill-70" fill="#9B9B9B"></path>
    </g>
</svg>
